!!!COM:	Busnoys, Antoine
!!!CDT:	~1430///-1492/11/06/
!!!OPR:	Missa L'homme arm&eacute;
!!!ONM:	1
!!!OTL:	Kyrie
!!!AGN:	Mass; Kyrie
!!!SCT:	Bus1001a
!!!SCA:	Bus1001a
!!!voices:	4
!!!voices-OPR:	4
**kern	**kern	**kern	**kern
*staff4	*staff3	*staff2	*staff1
*Ivox	*Ivox	*Ivox	*Ivox
*I"Contratenor Bassus	*I"Tenor	*I"Contratenor Altus	*I"Superius
*I'CtB	*I'T	*I'CtA	*I'S
*>[A,B,C]	*>[A,B,C]	*>[A,B,C]	*>[A,B,C]
*>A	*>A	*>A	*>A
*clefF4	*clefGv2	*clefGv2	*clefG2
*k[b-]	*k[b-]	*k[b-]	*k[b-]
*M3/1	*M3/1	*M3/1	*M3/1
*met(O)	*met(O.)	*met(O)	*met(O)
!!primary-mensuration: met(O)
!!section: Kyrie I
!!!OMD: Kyrie I
=1-	=1-	=1-	=1-
*	*rscale:1/2	*	*
0.r	0.r	0G	[0.g
.	.	1G	.
=2	=2-	=2	=2
0.r	0.r	0c	1g]
.	.	.	1.a
.	.	1c	.
.	.	.	2g
=3	=3-	=3	=3
0.r	0.r	1B-	1g
.	.	1.A	1.cc
.	.	2G	2b-
=4	=4	=4	=4
0G	0G	1G	1.b-
.	.	1d	.
.	.	.	2g
[1C	1G	[1e	1g
=5	=5-	=5	=5
1C]	0c	2e]	1r
.	.	2f	.
1E	.	1g	1g
1F	1c	1f	1a
=6	=6-	=6	=6
1G	1B-	2d	1b-
.	.	1g	.
1r	0A	.	0cc
.	.	2f#i	.
1A	.	2f#i	.
.	.	2e	.
=7	=7	=7	=7
2B-	1G	2g	1b-
4A	.	1d	.
4G	.	.	.
2F	1r	.	2a
2G	.	2B-	1g
1D	1r	1A	.
.	.	.	2f#i
=8	=8-	=8	=8
2r	1d	1G	2g
2.G	.	.	1b-
.	1d	1r	.
4D	.	.	.
2F	.	.	2a
1E	1G	1c	1g
=9	=9-	=9	=9
1D	1r	1d	1f
2G	1d	2B-	1r
1G	.	2G	.
.	1d	1A	1a
2F#i	.	.	.
=10	=10	=10	=10
1G	1d	1G	1b-
2r	0c	1g	2.cc
2.C	.	.	.
.	.	.	4b-
.	.	1e	2.a
4D	.	.	.
4E	.	.	.
4F	.	.	4g
=11	=11-	=11	=11
2G	1B-	2d	2.g
2E	.	2g	.
.	.	.	8fL
.	.	.	8gJ
2F	0A	2f	2.a
2G	.	2.d	.
.	.	.	2g
1D	.	.	.
.	.	4c	4f#i
.	.	2A	4f#i
.	.	.	4e
=12	=12-	=12	=12
2r	0G	2B-	1g
1G	.	2e-	.
.	.	2d	1r
2B-	.	1g	.
1A	1r	.	1a
.	.	2f#i	.
=13	=13	=13	=13
1G	1d	1g	1b-
0D	1d	2r	1.a
.	.	1f	.
.	1d	.	.
.	.	2e	2g
=14	=14-	=14	=14
2r	0G	1.g	1g
1d	.	.	.
.	.	.	2r
2B-	.	2d	1dd
1A	1r	1e	.
.	.	.	2cc
=15	=15-	=15	=15
2B-	0g	1d	1dd
2.G	.	.	.
.	.	1G	2.b-
4F	.	.	.
2.E-	.	.	.
.	.	.	4g
.	1g	2r	2.b-
4F	.	.	.
2G	.	[2d	.
.	.	.	4cc
=16	=16	=16	=16
1D	0f	2d]	2.a
.	.	4c	.
.	.	4B-	4b-
1r	.	2A	2cc
.	.	2.B-	2.dd
1D	1f	.	.
.	.	4c	4cc
.	.	2d	4b-
.	.	.	4a
=17	=17-	=17	=17
2E	0g	2G	2.g
2C	.	2.c	.
.	.	.	4f
2E	.	.	2g
.	.	4B-	.
2F	.	2A	2a
2.G	1g	2G	2b-
.	.	[2d	4a
4A	.	.	4g
=18	=18-	=18	=18
2B-	0.dl	2d]	2.f
4A	.	4c	.
4G	.	4B-	4e
2F	.	2A	2f
2E	.	2G	1g
1D	.	1A	.
.	.	.	2f#i
=19	=19	=19	=19
0.Gl	0.r	0.Gl	0.gl
*	*rscale:1	*	*
!!LO:LB:i:g=z
=20||	=20||	=20||	=20||
*>B	*>B	*>B	*>B
*clefF4	*clefGv2	*clefGv2	*clefG2
*k[b-]	*k[b-]	*k[b-]	*k[b-]
*M2/1	*M2/1	*M2/1	*M2/1
*met(O2)	*met(O2)	*met(O2)	*met(O2)
!!section: Christe
!!!OMD: Christe
0r	0r	0r	1g
.	.	.	2a
.	.	.	[2b-
=21.	=21.	=21.	=21.
0r	0r	1G	4b-]
.	.	.	4a
.	.	.	2g
.	.	2A	2f
.	.	[2B-	[2g
=22.	=22.	=22.	=22.
0r	0r	4B-]	2g]
.	.	4A	.
.	.	2G	2b-
.	.	2F	2a
.	.	[2G	2g
=23	=23	=23	=23
0r	0r	2G]	2b-
.	.	2B-	2dd
.	.	2A	2cc
.	.	2G	4b-
.	.	.	4a
=24.	=24.	=24.	=24.
0r	0r	2B-	2g
.	.	2d	2b-
.	.	2c	2a
.	.	4B-	[2b-
.	.	4A	.
=25.	=25.	=25.	=25.
0r	0r	2G	2b-]
.	.	2B-	1g
.	.	1A	.
.	.	.	2f#i
=26	=26	=26	=26
1d	0r	0G	1g
2e-	.	.	1r
[2d	.	.	.
=27.	=27.	=27.	=27.
2d]	0r	0r	1dd
2B-	.	.	.
2c	.	.	2ee-
2d	.	.	[2dd
=28.	=28.	=28.	=28.
1G	0r	0r	2dd]
.	.	.	2b-
2A	.	.	2cc
[2B-	.	.	2dd
=29	=29	=29	=29
4B-]	0r	0r	1g
4A	.	.	.
2G	.	.	.
2F	.	.	2a
2D	.	.	[2b-
=30.	=30.	=30.	=30.
1E-i	0r	0r	4b-]
.	.	.	4a
.	.	.	2g
1D	.	.	2f
.	.	.	2d
=31.	=31.	=31.	=31.
2r	0r	0r	1e-i
1G	.	.	.
.	.	.	1d
2F	.	.	.
=32	=32	=32	=32
2G	0r	0r	2r
2B-	.	.	1g
1A	.	.	.
.	.	.	2f
=33.	=33.	=33.	=33.
2G	0r	0r	2g
2.d	.	.	2b-
.	.	.	1a
4c	.	.	.
2A	.	.	.
=34.	=34.	=34.	=34.
2B-	0r	0r	2g
1G	.	.	2.dd
.	.	.	4cc
2F	.	.	2a
=35	=35	=35	=35
2G	0r	0r	2b-
2B-	.	.	1g
1A	.	.	.
.	.	.	2f#i
=36.	=36.	=36.	=36.
1.G	0r	1d	1g
.	.	2e	1r
2G	.	[2d	.
=37.	=37.	=37.	=37.
1G	0r	2d]	1b-
.	.	1g	.
1D	.	.	1a
.	.	2f	.
=38	=38	=38	=38
0r	0r	2g	1g
.	.	4f	.
.	.	4e	.
.	.	2.d	1f
.	.	4c	.
=39.	=39.	=39.	=39.
0r	0r	2B-	2.g
.	.	2c	.
.	.	.	4e
.	.	2A	2f
.	.	[2G	2g
=40.	=40.	=40.	=40.
2.G	0r	2G]	2.b-
.	.	1d	.
4F	.	.	4g
2G	.	.	2b-
2A	.	2c	[2a
=41	=41	=41	=41
2F	0r	2d	2a]
2G	.	2B-	2dd
2A	.	2A	2cc
2B-	.	[2d	2b-
=42.	=42.	=42.	=42.
2F	0r	4d]	2a
.	.	4c	.
2G	.	2B-	2g
2F	.	2A	2a
2E-i	.	2G	[2b-
=43.	=43.	=43.	=43.
2.G	0r	1B-	4b-]
.	.	.	4a
.	.	.	1g
4F	.	.	.
1D	.	1A	.
.	.	.	2f#i
=44	=44	=44	=44
0dl	0r	0Gl	0gl
!!LO:LB:i:g=z
=45||	=45||	=45||	=45||
*>C	*>C	*>C	*>C
*clefF4	*clefGv2	*clefGv2	*clefG2
*k[b-]	*k[b-]	*k[b-]	*k[b-]
*M3/1	*M3/1	*M3/1	*M3/1
*met(C|)	*met(C.)	*met(C|)	*met(C|)
!!primary-mensuration: met(C|)
!!section: Kyrie II
!!!OMD: Kyrie II
*	*rscale:1/2	*	*
0G	0g	0d	1.b-
.	.	.	2cc
[1B-	1g	1G	1dd
=46	=46-	=46	=46
1B-]	0f	1B-	1dd
0A	.	0c	2cc
.	.	.	1cc
.	1f	.	.
.	.	.	2a
=47	=47	=47	=47
1.G	0g	1d	1.b-
.	.	1r	.
1B-	.	.	2g
.	1g	2d	1g
2c	.	2e	.
=48	=48-	=48	=48
2.d	1d	1f	1r
4e	.	.	.
1f	1r	1.B-	1f
[1B-	1r	.	[1b-
.	.	2c	.
=49	=49	=49	=49
2B-]	0g	1d	2b-]
2c	.	.	2a
1d	.	1G	2.b-
.	.	.	4cc
1G	1g	1r	[1dd
=50	=50-	=50	=50
0F	0a	1r	2dd]
.	.	.	1cc
.	.	1A	.
.	.	.	2b-
1G	1g	2.B-	1b-
.	.	4c	.
=51	=51	=51	=51
1r	1f	2d	1a
.	.	4c	.
.	.	4d	.
0C	0e	2e	2g
.	.	2.c	1g
.	.	4B-	.
.	.	2G	4f
.	.	.	4e
=52	=52-	=52	=52
2.D	0.d	2B-	2f
.	.	1A	2.a
4E	.	.	.
2F	.	.	.
.	.	.	4g
2G	.	2G	2e
1D	.	1A	2.f#i
.	.	.	8eL
.	.	.	8f#iJ
=53	=53	=53	=53
2G	0.r	1.G	1g
2.B-	.	.	.
.	.	.	1b-
4A	.	.	.
2G	.	1d	.
1F	.	.	1a
.	.	2c	.
=54	=54-	=54	=54
2r	0.r	2e-	2g
1G	.	2.d	2.b-
.	.	4B-	4a
2C	.	2c	1g
1D	.	1A	.
.	.	.	2f#i
=55	=55	=55	=55
1.E	0G	0G	0.g
2C	.	.	.
[1C	1G	1r	.
=56	=56-	=56	=56
1C]	0c	1g	1r
1.F	.	1.a	1r
.	1c	.	1a
2E	.	2g	.
=57	=57	=57	=57
1G	1B-	1.g	1b-
1r	0A	.	1cc
.	.	4f	.
.	.	4e	.
1F	.	4f	1a
.	.	4e	.
.	.	4d	.
.	.	4c	.
=58	=58-	=58	=58
1G	1G	2B-	1b-
.	.	1e-	.
1D	1r	.	2a
.	.	2d	2f
1E	1r	2c	1g
.	.	2B-	.
=59	=59	=59	=59
2.D	1d	2.d	2.f
4E	.	4c	4g
2F	1d	2A	2a
2.G	.	2G	2.b-
.	1G	2B-	.
4A	.	.	4cc
2B-	.	2d	4b-
.	.	.	8aL
.	.	.	8gJ
=60	=60-	=60	=60
2A	1r	2c	2f
2F	.	4B-	2a
.	.	4A	.
1G	1d	2G	2b-
.	.	2B-	1g
1D	1d	1A	.
.	.	.	2f#i
=61	=61	=61	=61
2r	1d	1G	2g
2G	.	.	2b-
2A	0c	1r	2cc
2.F	.	.	2.a
.	.	1r	.
4E	.	.	4g
2F	.	.	2a
=62	=62-	=62	=62
2G	1B-	2d	2b-
2E-	.	2e-	2g
2F	0A	2c	2a
4E-i	.	4e-i	2.f#i
2D	.	4f	.
.	.	2e-i	.
4C	.	.	4g
2D	.	2d	4f#i
.	.	.	8eL
.	.	.	8f#iJ
=63	=63	=63	=63
2r	[0.Gl	[0.dl	[0.gl
2G	.	.	.
0G	.	.	.
=64	=64-	=64	=64
0.Gl	0.G]	0.d]	0.g]
*	*rscale:1	*	*
==	==	==	==
*-	*-	*-	*-
!!!RDF**kern: l=long note in original notation
!!!RDF**kern: i=editorial accidental
!!!RDF**kern: V=start of tuplet marker
!!!RDF**kern: Z=end of tuplet marker
!!!ENC:	Will Watson 14/10/2012
!!!END:	2012/10/29/
!!!EED:	Jesse Rodin
!!!EEV:	2012/10/29/
!!!ONB:	Translated from MusicXML and edited on 2012/10/29/ by Craig Sapp
!!muse2ps: T^@{OPR}^u^@{ONM}{. }@{OTL}^C^@{COM}^i2I150v85,85,85,150Q16
